; generated by PrusaSlicer 2.8.1+win64 on 2024-10-24 at 19:55:42 UTC

; 

; external perimeters extrusion width = 0.45mm
; perimeters extrusion width = 0.45mm
; infill extrusion width = 0.45mm
; solid infill extrusion width = 0.45mm
; top infill extrusion width = 0.40mm
; support material extrusion width = 0.35mm
; first layer extrusion width = 0.42mm

M190 S60 ; set bed temperature and wait for it to be reached
M104 S215 ; set temperature
;TYPE:Custom
G28 ; home all axes
G1 Z5 F5000 ; lift nozzle
M109 S215 ; set temperature and wait for it to be reached
G21 ; set units to millimeters
G90 ; use absolute coordinates
M82 ; use absolute distances for extrusion
G92 E0
; Filament gcode
M107
;LAYER_CHANGE
;Z:0.35
;HEIGHT:0.35
G1 E-2 F2400
G1 Z.35 F7800
G1 X79.135 Y79.077
G1 E0 F2400
;TYPE:Skirt/Brim
;WIDTH:0.42
G1 F1800
G1 X79.892 Y78.32 E.05373
G1 X82.463 Y76.192 E.22122
G1 X84.32 Y74.93 E.3339
G1 X87.235 Y73.327 E.50085
G1 X89.295 Y72.436 E.61349
G1 X92.459 Y71.408 E.78045
G1 X94.65 Y70.918 E.89312
G1 X96.486 Y70.639 E.98632
G1 X98.337 Y70.477 E1.07957
G1 X101.663 Y70.477 E1.24649
G1 X103.898 Y70.688 E1.35915
G1 X107.166 Y71.311 E1.52611
G1 X109.322 Y71.938 E1.63879
G1 X112.415 Y73.162 E1.80573
G1 X114.415 Y74.182 E1.9184
G1 X117.224 Y75.964 E2.08535
G1 X118.998 Y77.34 E2.19802
G1 X120.383 Y78.578 E2.29125
G1 X121.68 Y79.892 E2.38391
G1 X123.807 Y82.461 E2.55129
G1 X125.07 Y84.32 E2.66408
G1 X126.673 Y87.235 E2.83103
G1 X127.564 Y89.295 E2.94367
G1 X128.592 Y92.459 E3.11063
G1 X129.082 Y94.65 E3.2233
G1 X129.361 Y96.486 E3.3165
G1 X129.522 Y98.326 E3.40919
G1 X129.523 Y101.663 E3.57666
G1 X129.312 Y103.898 E3.68932
G1 X128.689 Y107.166 E3.85628
G1 X128.062 Y109.322 E3.96896
G1 X126.838 Y112.415 E4.1359
G1 X125.818 Y114.415 E4.24857
G1 X124.036 Y117.224 E4.41552
G1 X122.66 Y118.998 E4.52819
G1 X121.422 Y120.383 E4.62142
G1 X120.1 Y121.688 E4.71465
G1 X117.537 Y123.808 E4.88158
G1 X115.68 Y125.07 E4.99426
G1 X112.765 Y126.673 E5.16121
G1 X110.705 Y127.564 E5.27385
G1 X108.953 Y128.182 E5.36709
G1 X107.166 Y128.689 E5.46031
G1 X103.898 Y129.312 E5.62727
G1 X101.663 Y129.523 E5.73993
G1 X98.337 Y129.523 E5.90685
G1 X96.102 Y129.312 E6.01951
G1 X92.834 Y128.689 E6.18647
G1 X90.678 Y128.062 E6.29915
G1 X87.585 Y126.838 E6.46609
G1 X85.585 Y125.818 E6.57876
G1 X82.776 Y124.036 E6.74571
G1 X81.002 Y122.66 E6.85838
G1 X79.617 Y121.422 E6.95161
G1 X78.312 Y120.1 E7.04484
G1 X77.093 Y118.699 E7.13804
G1 X75.97 Y117.232 E7.23076
G1 X74.183 Y114.417 E7.3981
G1 X73.162 Y112.415 E7.51088
G1 X71.941 Y109.332 E7.6773
G1 X71.314 Y107.176 E7.78998
G1 X70.69 Y103.909 E7.9569
G1 X70.478 Y101.674 E8.06957
G1 X70.477 Y98.345 E8.23664
G1 X70.688 Y96.102 E8.3497
G1 X70.989 Y94.279 E8.44243
G1 X71.405 Y92.469 E8.53563
G1 X72.432 Y89.305 E8.70257
G1 X73.323 Y87.244 E8.81525
G1 X74.924 Y84.329 E8.98215
G1 X76.186 Y82.472 E9.09483
G1 X78.305 Y79.908 E9.26176
G1 X79.093 Y79.12 E9.31769
G1 E7.31769 F2400
G92 E0
G1 X79.093 Y79.12 F7800
G92 E0
G1 X101.251 Y79.974
G1 E2 F2400
;TYPE:Support material
G1 F1800
G1 X102.515 Y80.093 E2.06372
G1 X104.99 Y80.566 E2.19018
G1 X107.386 Y81.344 E2.31661
G1 X108.543 Y81.845 E2.37989
G1 X110.751 Y83.059 E2.50635
G1 X111.794 Y83.767 E2.56961
G1 X112.79 Y84.54 E2.63288
G1 X114.627 Y86.265 E2.75935
G1 X115.46 Y87.21 E2.82257
G1 X116.941 Y89.249 E2.94904
G1 X118.155 Y91.457 E3.0755
G1 X118.656 Y92.614 E3.13878
G1 X119.434 Y95.01 E3.26521
G1 X119.907 Y97.485 E3.39167
G1 X120.065 Y100 E3.51814
G1 X120.025 Y101.26 E3.58141
G1 X119.905 Y102.522 E3.64503
G1 X119.434 Y104.99 E3.77112
G1 X119.083 Y106.2 E3.83435
G1 X118.155 Y108.543 E3.96082
G1 X116.941 Y110.751 E4.08728
G1 X116.233 Y111.794 E4.15054
G1 X115.46 Y112.79 E4.21381
G1 X113.735 Y114.627 E4.34028
G1 X112.79 Y115.46 E4.4035
G1 X110.751 Y116.941 E4.52997
G1 X108.543 Y118.155 E4.65643
G1 X106.2 Y119.083 E4.7829
G1 X104.99 Y119.434 E4.84613
G1 X102.515 Y119.907 E4.97259
G1 X100.009 Y120.064 E5.0986
G1 X98.74 Y120.025 E5.16232
G1 X96.249 Y119.711 E5.28832
G1 X95.01 Y119.434 E5.35204
G1 X92.614 Y118.656 E5.47847
G1 X91.457 Y118.155 E5.54175
G1 X89.249 Y116.941 E5.66821
G1 X87.21 Y115.46 E5.79468
G1 X85.373 Y113.735 E5.92115
G1 X84.54 Y112.79 E5.98437
G1 X83.059 Y110.751 E6.11084
G1 X82.417 Y109.666 E6.17411
G1 X81.845 Y108.543 E6.23736
G1 X80.917 Y106.2 E6.36383
G1 X80.566 Y104.99 E6.42706
G1 X80.093 Y102.515 E6.55352
G1 X79.975 Y101.26 E6.61678
G1 X79.975 Y98.74 E6.74325
G1 X80.095 Y97.478 E6.80687
G1 X80.566 Y95.01 E6.93296
G1 X81.344 Y92.614 E7.05939
G1 X81.845 Y91.457 E7.12267
G1 X83.059 Y89.249 E7.24913
G1 X83.767 Y88.206 E7.31239
G1 X84.54 Y87.21 E7.37566
G1 X86.265 Y85.373 E7.50213
G1 X87.21 Y84.54 E7.56535
G1 X89.249 Y83.059 E7.69182
G1 X90.334 Y82.417 E7.75509
G1 X92.614 Y81.344 E7.88155
G1 X95.01 Y80.566 E8.00798
G1 X96.24 Y80.291 E8.07123
G1 X98.74 Y79.975 E8.19769
G1 X101.199 Y79.973 E8.3211
G1 E6.3211 F2400
G92 E0
G1 X101.199 Y79.973 F7800
G1 X97.361 Y108.504
G1 E2 F2400
G1 F1800
G1 X102.639 Y108.504 E2.26488
G1 X102.639 Y110.995 E2.38989
G1 X97.361 Y110.995 E2.65477
G1 X97.361 Y108.556 E2.77717
G1 E.77717 F2400
G92 E0
G1 X97.361 Y108.556 F7800
G1 X89.005 Y97.361
G1 E2 F2400
G1 F1800
G1 X91.496 Y97.361 E2.12501
G1 X91.496 Y102.639 E2.38989
G1 X89.005 Y102.639 E2.5149
G1 X89.005 Y97.413 E2.77717
G1 X89.005 Y97.413 F7800
G1 X108.504 Y97.361
G1 F1800
G1 X110.995 Y97.361 E2.90218
G1 X110.995 Y102.639 E3.16706
G1 X108.504 Y102.639 E3.29207
G1 X108.504 Y97.413 E3.55434
G1 E1.55434 F2400
G92 E0
G1 X108.504 Y97.413 F7800
G1 X97.361 Y89.005
G1 E2 F2400
G1 F1800
G1 X102.639 Y89.005 E2.26488
G1 X102.639 Y91.496 E2.38989
G1 X97.361 Y91.496 E2.65477
G1 X97.361 Y89.056 E2.77722
G1 E.77722 F2400
G92 E0
G1 X97.361 Y89.056 F7800
G1 X119.544 Y103.789
G1 E2 F2400
G1 F1800
G1 X119.544 Y97.178 E2.33178
G1 X119.161 Y95.208 E2.4325
G1 X119.161 Y104.792 E2.91348
G1 X118.777 Y106.132 E2.98344
G1 X118.777 Y93.868 E3.59892
G1 X118.394 Y92.803 E3.65572
G1 X118.394 Y107.197 E4.3781
G1 X118.011 Y108.095 E4.42709
G1 X118.011 Y91.905 E5.2396
G1 X117.628 Y91.105 E5.28411
G1 X117.628 Y108.895 E6.17692
G1 X117.244 Y109.629 E6.21849
G1 X117.244 Y90.371 E7.18497
G1 X116.861 Y89.723 E7.22275
G1 X116.861 Y110.277 E8.25427
G1 X116.478 Y110.881 E8.29016
G1 X116.478 Y89.119 E9.38231
G1 X116.095 Y88.555 E9.41652
G1 X116.095 Y111.444 E10.56523
G1 X115.712 Y111.959 E10.59744
G1 X115.712 Y88.041 E11.79779
G1 X115.328 Y87.547 E11.82919
G1 X115.328 Y112.453 E13.07912
G1 X114.945 Y112.905 E13.10885
G1 X114.945 Y87.095 E14.40415
G1 X114.562 Y86.661 E14.4332
G1 X114.562 Y113.339 E15.77206
G1 X114.179 Y113.744 E15.80003
G1 X114.179 Y86.256 E17.17954
G1 X113.796 Y85.873 E17.20672
G1 X113.796 Y114.127 E18.62467
G1 X113.412 Y114.497 E18.65143
G1 X113.412 Y85.502 E20.10657
G1 X113.029 Y85.165 E20.13217
G1 X113.029 Y114.835 E21.62119
G1 X112.646 Y115.173 E21.64683
G1 X112.646 Y84.827 E23.16977
G1 X112.263 Y84.524 E23.19428
G1 X112.263 Y115.476 E24.74763
G1 X111.88 Y115.773 E24.77195
G1 X111.88 Y84.227 E26.35511
G1 X111.496 Y83.94 E26.37917
G1 X111.496 Y116.06 E27.99114
G1 X111.113 Y116.32 E28.01437
G1 X111.113 Y102.949 E28.68541
G1 X110.73 Y102.949 E28.70463
G1 X110.73 Y116.58 E29.38871
G1 X110.347 Y116.82 E29.41139
G1 X110.347 Y102.949 E30.10752
G1 X109.963 Y102.949 E30.12679
G1 X109.963 Y117.047 E30.83431
G1 X109.58 Y117.273 E30.85663
G1 X109.58 Y102.949 E31.57549
G1 X109.197 Y102.949 E31.59471
G1 X109.197 Y117.474 E32.32366
G1 X108.814 Y117.669 E32.34523
G1 X108.814 Y102.949 E33.08397
G1 X108.431 Y102.949 E33.10319
G1 X108.431 Y117.864 E33.85171
G1 X108.047 Y118.031 E33.87272
G1 X108.047 Y81.968 E35.68257
G1 X107.664 Y81.803 E35.7035
G1 X107.664 Y118.197 E37.52997
G1 X107.281 Y118.363 E37.55092
G1 X107.281 Y81.637 E39.39405
G1 X106.898 Y81.498 E39.4145
G1 X106.898 Y118.502 E41.27158
G1 X106.515 Y118.64 E41.29201
G1 X106.515 Y81.36 E43.16294
G1 X106.131 Y81.222 E43.18342
G1 X106.131 Y118.778 E45.0682
G1 X105.748 Y118.891 E45.08824
G1 X105.748 Y81.109 E46.98436
G1 X105.365 Y80.998 E47.00437
G1 X105.365 Y119.002 E48.91164
G1 X104.982 Y119.114 E48.93167
G1 X104.982 Y80.886 E50.85018
G1 X104.599 Y80.796 E50.86992
G1 X104.599 Y119.204 E52.79746
G1 X104.215 Y119.289 E52.8172
G1 X104.215 Y80.71 E54.75332
G1 X103.832 Y80.625 E54.77301
G1 X103.832 Y119.375 E56.71771
G1 X103.449 Y119.444 E56.73724
G1 X103.449 Y80.556 E58.68887
G1 X103.066 Y80.495 E58.70833
G1 X103.066 Y119.505 E60.66608
G1 X102.682 Y119.566 E60.68559
G1 X102.682 Y111.306 E61.10013
G1 X102.299 Y111.306 E61.11935
G1 X102.299 Y119.615 E61.53634
G1 X101.916 Y119.651 E61.55565
G1 X101.916 Y111.306 E61.97445
G1 X101.533 Y111.306 E61.99367
G1 X101.533 Y119.688 E62.41433
G1 X101.15 Y119.718 E62.43361
G1 X101.15 Y111.306 E62.85577
G1 X100.766 Y111.306 E62.87504
G1 X100.766 Y119.73 E63.29781
G1 X100.383 Y119.742 E63.31704
G1 X100.383 Y111.306 E63.74041
G1 X100 Y111.306 E63.75963
G1 X100 Y119.754 E64.1836
G1 X99.617 Y119.742 E64.20283
G1 X99.617 Y111.306 E64.6262
G1 X99.234 Y111.306 E64.64542
G1 X99.234 Y119.73 E65.06819
G1 X98.85 Y119.718 E65.08747
G1 X98.85 Y111.306 E65.50963
G1 X98.467 Y111.306 E65.52885
G1 X98.467 Y119.688 E65.94951
G1 X98.084 Y119.651 E65.96882
G1 X98.084 Y111.306 E66.38762
G1 X97.701 Y111.306 E66.40684
G1 X97.701 Y119.615 E66.82383
G1 X97.318 Y119.566 E66.84321
G1 X97.318 Y111.306 E67.25775
G1 X97.051 Y111.306 E67.27115
G1 X97.051 Y108.194 E67.42733
G1 X97.318 Y108.194 E67.44073
G1 X97.318 Y91.806 E68.26318
G1 X97.701 Y91.806 E68.2824
G1 X97.701 Y108.194 E69.10485
G1 X98.084 Y108.194 E69.12407
G1 X98.084 Y91.806 E69.94652
G1 X98.467 Y91.806 E69.96574
G1 X98.467 Y108.194 E70.78819
G1 X98.85 Y108.194 E70.80741
G1 X98.85 Y91.806 E71.62986
G1 X99.234 Y91.806 E71.64913
G1 X99.234 Y108.194 E72.47158
G1 X99.617 Y108.194 E72.4908
G1 X99.617 Y91.806 E73.31325
G1 X100 Y91.806 E73.33247
G1 X100 Y108.194 E74.15492
G1 X100.383 Y108.194 E74.17414
G1 X100.383 Y91.806 E74.99659
G1 X100.766 Y91.806 E75.01581
G1 X100.766 Y108.194 E75.83826
G1 X101.15 Y108.194 E75.85753
G1 X101.15 Y91.806 E76.67998
G1 X101.533 Y91.806 E76.6992
G1 X101.533 Y108.194 E77.52165
G1 X101.916 Y108.194 E77.54087
G1 X101.916 Y91.806 E78.36332
G1 X102.299 Y91.806 E78.38254
G1 X102.299 Y108.194 E79.20499
G1 X102.682 Y108.194 E79.22421
G1 X102.682 Y91.806 E80.04666
G1 X102.949 Y91.806 E80.06006
G1 X102.949 Y88.694 E80.21624
G1 X102.682 Y88.694 E80.22964
G1 X102.682 Y80.434 E80.64418
G1 X102.299 Y80.385 E80.66356
G1 X102.299 Y88.694 E81.08055
G1 X101.916 Y88.694 E81.09977
G1 X101.916 Y80.349 E81.51857
G1 X101.533 Y80.312 E81.53788
G1 X101.533 Y88.694 E81.95854
G1 X101.15 Y88.694 E81.97776
G1 X101.15 Y80.282 E82.39992
G1 X100.766 Y80.27 E82.4192
G1 X100.766 Y88.694 E82.84197
G1 X100.383 Y88.694 E82.86119
G1 X100.383 Y80.258 E83.28456
G1 X100 Y80.246 E83.30379
G1 X100 Y88.694 E83.72776
G1 X99.617 Y88.694 E83.74698
G1 X99.617 Y80.258 E84.17035
G1 X99.234 Y80.27 E84.18958
G1 X99.234 Y88.694 E84.61235
G1 X98.85 Y88.694 E84.63162
G1 X98.85 Y80.282 E85.05378
G1 X98.467 Y80.312 E85.07306
G1 X98.467 Y88.694 E85.49372
G1 X98.084 Y88.694 E85.51294
G1 X98.084 Y80.349 E85.93174
G1 X97.701 Y80.385 E85.95105
G1 X97.701 Y88.694 E86.36804
G1 X97.318 Y88.694 E86.38726
G1 X97.318 Y80.434 E86.8018
G1 X96.934 Y80.495 E86.82131
G1 X96.934 Y119.505 E88.77906
G1 X96.551 Y119.444 E88.79852
G1 X96.551 Y80.556 E90.75015
G1 X96.168 Y80.625 E90.76968
G1 X96.168 Y119.375 E92.71438
G1 X95.785 Y119.289 E92.73408
G1 X95.785 Y80.71 E94.6702
G1 X95.401 Y80.796 E94.68995
G1 X95.401 Y119.204 E96.61749
G1 X95.018 Y119.114 E96.63723
G1 X95.018 Y80.886 E98.55574
G1 X94.635 Y80.998 E98.57577
G1 X94.635 Y119.002 E100.48304
G1 X94.252 Y118.891 E100.50305
G1 X94.252 Y81.109 E102.39917
G1 X93.869 Y81.222 E102.41921
G1 X93.869 Y118.778 E104.30399
G1 X93.485 Y118.64 E104.32447
G1 X93.485 Y81.36 E106.1954
G1 X93.102 Y81.498 E106.21583
G1 X93.102 Y118.502 E108.07291
G1 X92.719 Y118.363 E108.09336
G1 X92.719 Y81.637 E109.93649
G1 X92.336 Y81.803 E109.95744
G1 X92.336 Y118.197 E111.78391
G1 X91.953 Y118.031 E111.80486
G1 X91.953 Y81.968 E113.61471
G1 X91.589 Y82.126 E113.63462
G1 X91.569 Y97.051 E114.38365
G1 X91.186 Y97.051 E114.40287
G1 X91.186 Y82.331 E115.14161
G1 X90.803 Y82.526 E115.16318
G1 X90.803 Y97.051 E115.89213
G1 X90.42 Y97.051 E115.91135
G1 X90.42 Y82.727 E116.63021
G1 X90.037 Y82.953 E116.65253
G1 X90.037 Y97.051 E117.36005
G1 X89.653 Y97.051 E117.37932
G1 X89.653 Y83.18 E118.07545
G1 X89.27 Y83.419 E118.09811
G1 X89.27 Y97.051 E118.78224
G1 X88.887 Y97.051 E118.80146
G1 X88.887 Y83.68 E119.4725
G1 X88.504 Y83.94 E119.49573
G1 X88.504 Y116.06 E121.1077
G1 X88.887 Y116.32 E121.13093
G1 X88.887 Y102.949 E121.80197
G1 X89.27 Y102.949 E121.82119
G1 X89.27 Y116.58 E122.50527
G1 X89.653 Y116.82 E122.52795
G1 X89.653 Y102.949 E123.22408
G1 X90.037 Y102.949 E123.24335
G1 X90.037 Y117.047 E123.95087
G1 X90.42 Y117.273 E123.97319
G1 X90.42 Y102.949 E124.69205
G1 X90.803 Y102.949 E124.71127
G1 X90.803 Y117.474 E125.44022
G1 X91.186 Y117.669 E125.46179
G1 X91.186 Y102.949 E126.20053
G1 X91.569 Y102.949 E126.21975
G1 X91.569 Y118.035 E126.97685
G1 E124.97685 F2400
G92 E0
G1 X91.569 Y118.035 F7800
G1 X111.113 Y97.206
G1 E2 F2400
G1 F1800
G1 X111.113 Y83.68 E2.67881
G1 X110.73 Y83.419 E2.70207
G1 X110.73 Y97.051 E3.3862
G1 X110.347 Y97.051 E3.40542
G1 X110.347 Y83.18 E4.10155
G1 X109.963 Y82.953 E4.12394
G1 X109.963 Y97.051 E4.83146
G1 X109.58 Y97.051 E4.85068
G1 X109.58 Y82.727 E5.56954
G1 X109.197 Y82.526 E5.59125
G1 X109.197 Y97.051 E6.3202
G1 X108.814 Y97.051 E6.33942
G1 X108.814 Y82.331 E7.07816
G1 X108.431 Y82.136 E7.09973
G1 X108.431 Y97.206 E7.85603
G1 X108.431 Y97.206 F7800
G1 X88.12 Y115.97
G1 F1800
G1 X88.12 Y84.227 E9.44908
G1 X87.737 Y84.524 E9.4734
G1 X87.737 Y115.476 E11.02675
G1 X87.354 Y115.173 E11.05126
G1 X87.354 Y84.827 E12.5742
G1 X86.971 Y85.165 E12.59984
G1 X86.971 Y114.835 E14.08886
G1 X86.588 Y114.497 E14.1145
G1 X86.588 Y85.502 E15.56964
G1 X86.204 Y85.873 E15.59644
G1 X86.204 Y114.127 E17.01439
G1 X85.821 Y113.744 E17.04157
G1 X85.821 Y86.256 E18.42108
G1 X85.438 Y86.661 E18.44905
G1 X85.438 Y113.339 E19.78791
G1 X85.055 Y112.905 E19.81696
G1 X85.055 Y87.095 E21.11226
G1 X84.672 Y87.547 E21.14199
G1 X84.672 Y112.453 E22.39192
G1 X84.288 Y111.959 E22.42332
G1 X84.288 Y88.041 E23.62367
G1 X83.905 Y88.555 E23.65584
G1 X83.905 Y111.444 E24.80455
G1 X83.522 Y110.881 E24.83872
G1 X83.522 Y89.119 E25.93087
G1 X83.139 Y89.723 E25.96676
G1 X83.139 Y110.277 E26.99828
G1 X82.756 Y109.629 E27.03606
G1 X82.756 Y90.371 E28.00254
G1 X82.372 Y91.105 E28.04411
G1 X82.372 Y108.895 E28.93692
G1 X81.989 Y108.095 E28.98143
G1 X81.989 Y91.905 E29.79394
G1 X81.606 Y92.803 E29.84293
G1 X81.606 Y107.197 E30.56531
G1 X81.223 Y106.132 E30.62211
G1 X81.223 Y93.868 E31.23759
G1 X80.84 Y95.208 E31.30753
G1 X80.84 Y104.792 E31.78851
G1 X80.456 Y102.822 E31.88924
G1 X80.456 Y96.21 E32.22107
G1 E30.22107 F2400
G92 E0
G1 X80.456 Y96.21 F7800
G1 X114.629 Y115.618
G1 E2 F2400
;TYPE:Perimeter
;WIDTH:0.42
G1 F1800
G1 X113.661 Y116.471 E2.06475
G1 X112.556 Y117.328 E2.13493
G1 X111.443 Y118.083 E2.20243
G1 X110.333 Y118.739 E2.26714
G1 X109.087 Y119.374 E2.33732
G1 X107.852 Y119.907 E2.40483
G1 X106.639 Y120.344 E2.46954
G1 X105.296 Y120.734 E2.53972
G1 X103.983 Y121.025 E2.60721
G1 X102.709 Y121.227 E2.67195
G1 X101.371 Y121.355 E2.73941
G1 X100.027 Y121.399 E2.8069
G1 X98.629 Y121.355 E2.87709
G1 X97.291 Y121.227 E2.94455
G1 X95.964 Y121.015 E3.01199
G1 X94.652 Y120.72 E3.07948
G1 X93.413 Y120.36 E3.14423
G1 X92.097 Y119.887 E3.21441
G1 X90.864 Y119.351 E3.28188
G1 X89.715 Y118.765 E3.34661
G1 X88.511 Y118.054 E3.41678
G1 X87.4 Y117.296 E3.48428
G1 X86.38 Y116.506 E3.54903
G1 X85.331 Y115.581 E3.61922
G1 X84.382 Y114.629 E3.68668
G1 X83.521 Y113.651 E3.75207
G1 X82.703 Y112.6 E3.81891
G1 X81.946 Y111.489 E3.88638
G1 X81.235 Y110.285 E3.95655
G1 X80.649 Y109.136 E4.02128
G1 X80.113 Y107.903 E4.08875
G1 X79.64 Y106.587 E4.15893
G1 X79.266 Y105.296 E4.22638
G1 X78.985 Y104.036 E4.29117
G1 X78.766 Y102.655 E4.36134
G1 X78.641 Y101.317 E4.42878
G1 X78.601 Y100.027 E4.49355
G1 X78.647 Y98.607 E4.56485
G1 X78.773 Y97.291 E4.6312
